swiss/communes/0580.svg

<?xml version="1.0" encoding="UTF-8" standalone="no"?>
<svg
   xmlns:dc="http://purl.org/dc/elements/1.1/"
   xmlns:cc="http://web.resource.org/cc/"
   xmlns:rdf="http://www.w3.org/1999/02/22-rdf-syntax-ns#"
   xmlns:svg="http://www.w3.org/2000/svg"
   xmlns="http://www.w3.org/2000/svg"
   xmlns:xlink="http://www.w3.org/1999/xlink"
   xmlns:sodipodi="http://sodipodi.sourceforge.net/DTD/sodipodi-0.dtd"
   xmlns:inkscape="http://www.inkscape.org/namespaces/inkscape"
   height="763"
   width="603"
   version="1.0"
   id="svg20"
   sodipodi:version="0.32"
   inkscape:version="0.45.1"
   sodipodi:docname="Hofstetten bei Brienz-coat of arms.svg"
   sodipodi:docbase="C:\Users\Camilo\Documents\Escudos de Suiza"
   inkscape:output_extension="org.inkscape.output.svg.inkscape">
  <metadata
     id="metadata31">
    <rdf:RDF>
      <cc:Work
         rdf:about="">
        <dc:format>image/svg+xml</dc:format>
        <dc:type
           rdf:resource="http://purl.org/dc/dcmitype/StillImage" />
        <dc:date>07-AUG-2006</dc:date>
        <dc:creator>
          <cc:Agent>
            <dc:title>Jérôme BLUM (wagner51)</dc:title>
          </cc:Agent>
        </dc:creator>
        <cc:license
           rdf:resource="http://creativecommons.org/licenses/GPL/2.0/" />
        <dc:coverage />
        <dc:description>Gabarit pour le Projet:Blasons de WIkipédia</dc:description>
        <dc:subject>
          <rdf:Bag>
            <rdf:li>blason suisse modèle gabarit projet blasons</rdf:li>
          </rdf:Bag>
        </dc:subject>
        <dc:language>fr</dc:language>
        <dc:title>Gabrit d'un blason suisse</dc:title>
      </cc:Work>
      <cc:License
         rdf:about="http://creativecommons.org/licenses/GPL/2.0/">
        <cc:permits
           rdf:resource="http://web.resource.org/cc/Reproduction" />
        <cc:permits
           rdf:resource="http://web.resource.org/cc/Distribution" />
        <cc:requires
           rdf:resource="http://web.resource.org/cc/Notice" />
        <cc:permits
           rdf:resource="http://web.resource.org/cc/DerivativeWorks" />
        <cc:requires
           rdf:resource="http://web.resource.org/cc/ShareAlike" />
        <cc:requires
           rdf:resource="http://web.resource.org/cc/SourceCode" />
      </cc:License>
    </rdf:RDF>
  </metadata>
  <defs
     id="defs29">
    <linearGradient
       id="linearGradient2893">
      <stop
         style="stop-color:#ffffff;stop-opacity:0.3137255;"
         offset="0"
         id="stop2895" />
      <stop
         id="stop2897"
         offset="0.19"
         style="stop-color:#ffffff;stop-opacity:0.25098041;" />
      <stop
         style="stop-color:#6b6b6b;stop-opacity:0.1254902;"
         offset="0.60000002"
         id="stop2901" />
      <stop
         style="stop-color:#000000;stop-opacity:0.1254902;"
         offset="1"
         id="stop2899" />
    </linearGradient>
    <radialGradient
       inkscape:collect="always"
       xlink:href="#linearGradient2893"
       id="radialGradient3236"
       gradientUnits="userSpaceOnUse"
       gradientTransform="matrix(1.215027,1.531577e-24,1.464684e-23,1.266667,-839.1924,-490.4894)"
       cx="858.04236"
       cy="579.93323"
       fx="858.04236"
       fy="579.93323"
       r="300" />
  </defs>
  <sodipodi:namedview
     inkscape:window-height="750"
     inkscape:window-width="1280"
     inkscape:pageshadow="2"
     inkscape:pageopacity="0.0"
     guidetolerance="10.0"
     gridtolerance="10.0"
     objecttolerance="10.0"
     borderopacity="1.0"
     bordercolor="#666666"
     pagecolor="#ffffff"
     id="base"
     inkscape:zoom="0.40572277"
     inkscape:cx="542.58317"
     inkscape:cy="321.33106"
     inkscape:window-x="-8"
     inkscape:window-y="-8"
     inkscape:current-layer="layer2"
     showgrid="true"
     showguides="false" />
  <desc
     id="desc22">Coat of Arms of Canton of Freiburg (Fribourg)</desc>
  <g
     inkscape:groupmode="layer"
     id="layer1"
     inkscape:label="Fond écu"
     style="display:inline"
     sodipodi:insensitive="true">
    <path
       id="path1899"
       d="M 1.5,1.49998 L 1.5,460.3679 C 1.5,626.6785 135.81456,761.5 301.49999,761.5 C 467.18543,761.5 601.5,626.6785 601.5,460.3679 L 601.5,1.49998 L 1.5,1.49998 z "
       style="fill:#5ab532;fill-opacity:1" />
  </g>
  <g
     inkscape:groupmode="layer"
     id="layer2"
     inkscape:label="Meubles"
     style="display:inline"
     sodipodi:insensitive="true">
    <path
       sodipodi:type="star"
       style="fill:#fcef3c;fill-opacity:1;fill-rule:evenodd;stroke:#000000;stroke-width:1;stroke-miterlimit:4;stroke-dasharray:none;stroke-opacity:1"
       id="path12085"
       sodipodi:sides="6"
       sodipodi:cx="711.4978"
       sodipodi:cy="605.93414"
       sodipodi:r1="37.581573"
       sodipodi:r2="18.790787"
       sodipodi:arg1="0.51339905"
       sodipodi:arg2="1.0369978"
       inkscape:flatsided="false"
       inkscape:rounded="0"
       inkscape:randomized="0"
       d="M 744.23436,624.39199 L 721.05869,622.11077 L 711.88112,643.51376 L 702.26888,622.30242 L 679.14456,625.05591 L 692.70799,606.1258 L 678.76124,587.47629 L 701.93692,589.75752 L 711.11449,568.35452 L 720.72673,589.56586 L 743.85105,586.81237 L 730.28761,605.74249 L 744.23436,624.39199 z "
       transform="matrix(3.9718738,3.9167662e-2,-3.9449631e-2,4.0004671,-2368.958,-2285.325)" />
    <path
       style="fill:#ffffff;fill-opacity:1;fill-rule:evenodd;stroke:#000000;stroke-width:4.06230688px;stroke-linecap:butt;stroke-linejoin:miter;stroke-opacity:1"
       d="M 2.03125,2.03125 L 2.21875,138.0625 C 41.235338,205.67716 101.74235,181.62639 132,225.96875 C 161.44238,269.11638 150.65398,344.23354 235.0625,369.625 C 306.9815,391.25942 316.97018,414.94671 354.90625,492.28125 C 403.20892,590.74861 499.45572,545.31409 529.625,655.90625 C 566.50583,612.59578 591.36309,558.66816 599,499.3125 C 569.00873,462.88854 554.18304,456.37481 503.53125,441.34375 C 432.83171,420.36348 443.28896,305.78966 365.3125,281.59375 C 221.35576,236.92438 301.07535,183.0361 217.875,113.65625 C 176.1521,78.255316 111.45293,91.04927 93.1875,2.03125 L 2.03125,2.03125 z "
       id="path12089" />
    <path
       style="fill:#fcef3c;fill-opacity:1;fill-rule:evenodd;stroke:#000000;stroke-width:4.07557678;stroke-miterlimit:4;stroke-dasharray:none;stroke-opacity:1"
       d="M 185.97884,381.72991 C 172.9394,381.72991 160.35438,383.54333 148.4025,386.93475 L 165.9212,412.07027 C 150.54919,414.87968 136.29553,420.91948 123.90171,429.46202 L 118.18909,399.62945 C 97.031179,411.64787 79.419819,429.14861 67.156365,450.15439 L 94.449989,459.67543 C 86.963686,471.13987 81.554602,484.10269 78.835497,498.01345 L 52.684397,485.06484 C 49.857235,496.06423 48.368196,507.58826 48.368196,519.4675 C 48.368196,530.89295 49.808853,541.9828 52.430503,552.60069 L 78.70855,539.3982 C 81.512151,554.11801 87.366098,567.78613 95.465566,579.76737 L 65.252159,585.47999 C 77.465931,607.81049 95.632729,626.40574 117.68131,639.05166 L 124.15561,608.71131 C 136.78288,617.37332 151.38285,623.39915 167.06372,626.10306 L 150.94144,652.76195 C 162.12489,655.70005 173.87264,657.20509 185.97884,657.20509 C 200.05303,657.20509 213.68267,655.04058 226.47496,651.11163 L 211.11436,624.70664 C 225.51776,621.23373 238.81003,615.00614 250.34101,606.42626 L 258.84647,636.25883 C 278.88981,623.70683 295.5891,606.17107 306.95941,585.35304 L 275.34959,580.27516 C 283.52624,568.30606 289.36028,554.64769 292.23355,539.90599 L 319.52718,553.48932 C 322.29523,542.60738 323.71643,531.2066 323.71643,519.4675 C 323.71643,507.85857 322.23608,496.59915 319.52718,485.82653 L 291.97966,496.74398 C 289.11959,482.94972 283.65985,470.1249 276.11127,458.7868 L 305.18215,450.53524 C 293.06324,429.64966 275.57013,412.21407 254.65721,400.13724 L 247.29428,429.46202 C 235.11281,421.05134 221.12417,415.06529 206.03648,412.19722 L 220.3815,386.04612 C 209.38211,383.21371 197.85808,381.72991 185.97884,381.72991 z M 198.29271,439.74473 C 233.01158,444.8866 260.3728,472.41848 265.06687,507.28058 L 224.6977,507.28058 L 224.6977,480.87559 L 198.29271,480.87559 L 198.29271,439.74473 z M 173.91887,439.87168 L 173.91887,480.87559 L 147.51387,480.87559 L 147.51387,507.28058 L 108.16027,507.28058 C 112.80881,472.7567 139.67878,445.39569 173.91887,439.87168 z M 177.98117,511.34289 L 194.2304,511.34289 L 194.2304,527.59212 L 177.98117,527.59212 L 177.98117,511.34289 z M 108.66806,531.65443 L 147.51387,531.65443 L 147.51387,558.05942 L 173.79192,558.05942 L 173.66497,596.0166 C 140.55404,590.56726 114.43077,564.65925 108.66806,531.65443 z M 224.6977,531.65443 L 264.55909,531.65443 C 258.70835,565.16354 231.86629,591.37891 198.03881,596.27049 L 198.16576,558.05942 L 224.6977,558.05942 L 224.6977,531.65443 z "
       id="path13060" />
  </g>
  <g
     inkscape:groupmode="layer"
     id="layer3"
     inkscape:label="Reflet final"
     style="display:inline"
     sodipodi:insensitive="true">
    <path
       style="fill:url(#radialGradient3236);fill-opacity:1"
       d="M 1.5,1.5 L 1.5,460.3679 C 1.5,626.67854 135.81454,761.5 301.49993,761.5 C 467.1854,761.5 601.5,626.67854 601.5,460.3679 L 601.5,1.5 L 1.5,1.5 z "
       id="path2346" />
  </g>
  <g
     inkscape:groupmode="layer"
     id="layer4"
     inkscape:label="Contour final"
     style="display:inline"
     sodipodi:insensitive="true">
    <path
       style="fill:none;fill-opacity:1;stroke:#000000;stroke-width:3;stroke-miterlimit:4;stroke-dasharray:none;stroke-opacity:1"
       d="M 1.5,1.5 L 1.5,460.36794 C 1.5,626.67854 135.81454,761.5 301.49993,761.5 C 467.1854,761.5 601.5,626.67854 601.5,460.36794 L 601.5,1.5 L 1.5,1.5 z "
       id="path3239" />
  </g>
</svg>

<svg xmlns="http://www.w3.org/2000/svg" xmlns:xlink="http://www.w3.org/1999/xlink" height="763" width="603" version="1.0"><defs><radialGradient xlink:href="#a" id="b" gradientUnits="userSpaceOnUse" gradientTransform="matrix(1.21503 0 0 1.26667 -839.192 -490.49)" cx="858.042" cy="579.933" fx="858.042" fy="579.933" r="300"/><linearGradient id="a"><stop style="stop-color:#fff;stop-opacity:.3137255" offset="0"/><stop offset=".19" style="stop-color:#fff;stop-opacity:.25098041"/><stop style="stop-color:#6b6b6b;stop-opacity:.1254902" offset=".6"/><stop style="stop-color:#000;stop-opacity:.1254902" offset="1"/></linearGradient></defs><g style="display:inline"><path d="M1.5 1.5v458.868c0 166.31 134.315 301.132 300 301.132s300-134.822 300-301.132V1.5H1.5z" style="fill:#5ab532;fill-opacity:1"/></g><g style="display:inline"><path style="fill:#fcef3c;fill-opacity:1;fill-rule:evenodd;stroke:#000;stroke-width:1;stroke-miterlimit:4;stroke-dasharray:none;stroke-opacity:1" d="m744.234 624.392-23.175-2.281-9.178 21.403-9.612-21.212-23.124 2.754 13.563-18.93-13.947-18.65 23.176 2.282 9.177-21.403 9.613 21.21 23.124-2.753-13.563 18.93 13.946 18.65z" transform="matrix(3.97187 .03917 -.03945 4.00047 -2368.958 -2285.325)"/><path style="fill:#fff;fill-opacity:1;fill-rule:evenodd;stroke:#000;stroke-width:4.06230688px;stroke-linecap:butt;stroke-linejoin:miter;stroke-opacity:1" d="m2.031 2.031.188 136.031C41.235 205.678 101.742 181.626 132 225.97c29.442 43.147 18.654 118.265 103.063 143.656 71.918 21.634 81.907 45.322 119.843 122.656 48.303 98.468 144.55 53.033 174.719 163.625 36.88-43.31 61.738-97.238 69.375-156.593-29.991-36.424-44.817-42.938-95.469-57.97-70.7-20.98-60.242-135.553-138.219-159.75-143.956-44.669-64.237-98.557-147.437-167.937C176.152 78.256 111.453 91.05 93.187 2.031H2.031z"/><path style="fill:#fcef3c;fill-opacity:1;fill-rule:evenodd;stroke:#000;stroke-width:4.07557678;stroke-miterlimit:4;stroke-dasharray:none;stroke-opacity:1" d="M185.979 381.73c-13.04 0-25.625 1.813-37.577 5.205l17.52 25.135a108.305 108.305 0 0 0-42.02 17.392l-5.713-29.833c-21.158 12.019-38.77 29.52-51.033 50.525l27.294 9.521c-7.486 11.465-12.895 24.428-15.615 38.338l-26.15-12.948c-2.828 11-4.317 22.523-4.317 34.402 0 11.426 1.44 22.516 4.063 33.134l26.278-13.203c2.803 14.72 8.657 28.388 16.757 40.37l-30.214 5.712c12.214 22.33 30.38 40.926 52.43 53.572l6.474-30.34c12.627 8.661 27.227 14.687 42.908 17.391l-16.123 26.659c11.184 2.938 22.932 4.443 35.038 4.443 14.074 0 27.704-2.164 40.496-6.093l-15.36-26.405c14.403-3.473 27.695-9.7 39.226-18.28l8.505 29.832c20.044-12.552 36.743-30.088 48.113-50.906l-31.61-5.078a108.153 108.153 0 0 0 16.885-40.369l27.293 13.583c2.768-10.882 4.19-22.282 4.19-34.022 0-11.608-1.48-22.868-4.19-33.64l-27.547 10.917a107.975 107.975 0 0 0-15.869-37.957l29.071-8.252c-12.119-20.885-29.612-38.32-50.525-50.398l-7.363 29.325a108.1 108.1 0 0 0-41.258-17.265l14.345-26.15c-10.999-2.833-22.523-4.317-34.402-4.317zm12.314 58.015c34.719 5.142 62.08 32.673 66.774 67.536h-40.37v-26.405h-26.404v-41.131zm-24.374.127v41.004h-26.405v26.405H108.16c4.649-34.524 31.519-61.885 65.759-67.41zm4.062 71.47h16.25v16.25h-16.25v-16.25zm-69.313 20.312h38.846v26.405h26.278l-.127 37.958c-33.111-5.45-59.234-31.358-64.997-64.363zm116.03 0h39.861c-5.85 33.51-32.693 59.725-66.52 64.616l.127-38.21h26.532v-26.406z"/></g><g style="display:inline"><path style="fill:url(#b);fill-opacity:1" d="M1.5 1.5v458.868c0 166.31 134.315 301.132 300 301.132s300-134.821 300-301.132V1.5H1.5z"/></g><g style="display:inline"><path style="fill:none;fill-opacity:1;stroke:#000;stroke-width:3;stroke-miterlimit:4;stroke-dasharray:none;stroke-opacity:1" d="M1.5 1.5v458.868c0 166.31 134.315 301.132 300 301.132s300-134.821 300-301.132V1.5H1.5z"/></g></svg>
